packages/axiom-materials/src/icon_svgs/plugin.svg

<svg height="16" viewBox="0 0 16 16" width="16" xmlns="http://www.w3.org/2000/svg"><path d="m12.267 5.15124997-1.768 1.768-.78094201-.78094197-.63305802-.63305803 1.76800003-1.768c.39-.391.39-1.024 0-1.414-.391-.391-1.02400003-.391-1.41500003 0l-1.767 1.767-.707-.707-2.475 2.475.035.036c-1.01 1.301-1.108 3.068-.289 4.46000003l-2.575 2.575 1.414 1.414 2.575-2.575c1.392.82 3.159.721 4.46100003-.289l.035.036 2.475-2.47500003-.707-.707 1.768-1.768c.391-.39.391-1.023 0-1.414s-1.024-.391-1.414 0z" fill-rule="evenodd"/></svg>

<?xml version="1.0" encoding="UTF-8"?>
<svg width="16px" height="16px" viewBox="0 0 16 16" version="1.1" xmlns="http://www.w3.org/2000/svg" xmlns:xlink="http://www.w3.org/1999/xlink">
    <!-- Generator: sketchtool 43.2 (39069) - http://www.bohemiancoding.com/sketch -->
    <title>plugin</title>
    <desc>Created with sketchtool.</desc>
    <defs></defs>
    <g id="Page-1" stroke="none" stroke-width="1" fill="none" fill-rule="evenodd">
        <g id="plugin" fill="#000000">
            <path d="M12.267,5.15124997 L10.499,6.91924997 L9.71805799,6.138308 L9.08499997,5.50524997 L10.853,3.73724997 C11.243,3.34624997 11.243,2.71324997 10.853,2.32324997 C10.462,1.93224997 9.82899997,1.93224997 9.43799997,2.32324997 L7.67099997,4.09024997 L6.96399997,3.38324997 L4.48899997,5.85824997 L4.52399997,5.89424997 C3.51399997,7.19524997 3.41599997,8.96224997 4.23499997,10.35425 L1.65999997,12.92925 L3.07399997,14.34325 L5.64899997,11.76825 C7.04099997,12.58825 8.80799997,12.48925 10.11,11.47925 L10.145,11.51525 L12.62,9.04024997 L11.913,8.33324997 L13.681,6.56524997 C14.072,6.17524997 14.072,5.54224997 13.681,5.15124997 C13.29,4.76024997 12.657,4.76024997 12.267,5.15124997 Z" id="Mask"></path>
        </g>
    </g>
</svg>
